X:1
T:The Fairy Queen
S:Ethan Hack <Ethan.Hack@NCL.AC.UK> irtrad-l 2001-1-19
R:reel, hornpipe
B:Matt Cranitch's Irish Fiddle Book
M:C
L:1/8
K:D
A2 \
| d2ec d2AG | FDFA dAFA | G2BG E2ef | gece dcBA \
| d2ec d2AG | FDFA dAFA | G2BG E2ef |gece d2 :|
|: A2 \
| df(3fgf gece | da^ga ba^ga | fdAF G2ef | ge(3efe ge(3efe \
| df(3fgf gfga | ba^ga ba^ga | fdAF G2ef | gece d2 :|
